build/category/GameOutline.svg

<svg xmlns="http://www.w3.org/2000/svg" fill="none" viewBox="0 0 24 24" focusable="false"><path d="M0 0H24V24H0z"/><path fill="#74767B" fill-rule="evenodd" d="M6.16146 17.5915L6.11792 17.6698C5.85476 18.1435 5.35547 18.4373 4.81359 18.4373C3.98952 18.4373 3.32148 17.7693 3.32148 16.9452L3.32148 10.8673C3.32148 8.52359 5.22147 6.62361 7.56522 6.62361L16.4352 6.62361C18.7789 6.62361 20.6789 8.52359 20.6789 10.8673L20.6789 16.9452C20.6789 17.7693 20.0109 18.4373 19.1868 18.4373C18.6449 18.4373 18.1457 18.1435 17.8825 17.6698L17.839 17.5915L16.8626 16.2932C15.7133 14.7649 13.9124 13.8659 12.0002 13.8659C10.088 13.8659 8.28708 14.7649 7.13779 16.2932L6.16146 17.5915ZM7.56522 5.32361C4.5035 5.32361 2.02148 7.80563 2.02148 10.8673L2.02148 16.9452C2.02148 18.4873 3.27155 19.7373 4.81359 19.7373C5.82759 19.7373 6.76189 19.1876 7.25433 18.3012L8.17678 17.0746C9.08049 15.8728 10.4966 15.1659 12.0002 15.1659C13.5038 15.1659 14.9199 15.8728 15.8236 17.0746L16.7461 18.3012C17.2385 19.1876 18.1728 19.7373 19.1868 19.7373C20.7289 19.7373 21.9789 18.4873 21.9789 16.9452L21.9789 10.8673C21.9789 7.80562 19.4969 5.32361 16.4352 5.32361L7.56522 5.32361ZM7.40518 7.92163C7.04619 7.92163 6.75518 8.21265 6.75518 8.57163L6.75518 10.0442L5.28257 10.0442C4.92358 10.0442 4.63257 10.3352 4.63257 10.6942C4.63257 11.0532 4.92358 11.3442 5.28257 11.3442L6.75518 11.3442L6.75518 12.8167C6.75518 13.1757 7.04619 13.4667 7.40518 13.4667C7.76416 13.4667 8.05518 13.1757 8.05518 12.8167L8.05518 11.3442L9.52765 11.3442C9.88664 11.3442 10.1777 11.0532 10.1777 10.6942C10.1777 10.3352 9.88664 10.0442 9.52766 10.0442L8.05518 10.0442L8.05518 8.57163C8.05518 8.21265 7.76416 7.92163 7.40518 7.92163ZM18.0384 10.6948C18.0384 11.5077 17.3794 12.1667 16.5665 12.1667C15.7537 12.1667 15.0947 11.5077 15.0947 10.6948C15.0947 9.88195 15.7537 9.22297 16.5665 9.22297C17.3794 9.22297 18.0384 9.88195 18.0384 10.6948ZM19.3384 10.6948C19.3384 12.2257 18.0974 13.4667 16.5665 13.4667C15.0357 13.4667 13.7947 12.2257 13.7947 10.6948C13.7947 9.16398 15.0357 7.92297 16.5665 7.92297C18.0974 7.92297 19.3384 9.16398 19.3384 10.6948Z"/></svg>

<svg xmlns="http://www.w3.org/2000/svg" fill="none" viewBox="0 0 24 24" focusable="false"><path fill="#74767B" fill-rule="evenodd" d="m6.16 17.59-.05.07a1.487 1.487 0 0 1-2.79-.72v-6.08c0-2.34 1.9-4.24 4.24-4.24h8.87c2.34 0 4.24 1.9 4.24 4.24v6.08a1.487 1.487 0 0 1-2.79.72l-.05-.07-.97-1.3a6.086 6.086 0 0 0-9.73 0zm1.4-12.27a5.54 5.54 0 0 0-5.54 5.54v6.08a2.791 2.791 0 0 0 5.23 1.36l.92-1.23c.91-1.2 2.32-1.91 3.83-1.91 1.5 0 2.91.71 3.82 1.91l.92 1.23a2.791 2.791 0 0 0 5.23-1.36v-6.08a5.54 5.54 0 0 0-5.54-5.54zm-.16 2.6c-.36 0-.65.29-.65.65v1.47H5.28c-.36 0-.65.29-.65.65s.29.65.65.65h1.47v1.47c0 .36.29.65.65.65s.65-.29.65-.65v-1.47h1.47c.36 0 .65-.29.65-.65s-.29-.65-.65-.65H8.05V8.57c0-.36-.29-.65-.65-.65m10.63 2.77c0 .81-.66 1.47-1.47 1.47s-1.47-.66-1.47-1.47.66-1.47 1.47-1.47 1.47.66 1.47 1.47m1.3 0a2.77 2.77 0 1 1-5.54 0 2.77 2.77 0 0 1 5.54 0"/></svg>
